icons/zap-16.svg

<svg xmlns="http://www.w3.org/2000/svg" width="16" height="16" viewBox="0 0 16 16"><path d="M9.504.43a1.516 1.516 0 012.437 1.713L10.415 5.5h2.123c1.57 0 2.346 1.909 1.22 3.004l-7.34 7.142a1.249 1.249 0 01-.871.354h-.302a1.25 1.25 0 01-1.157-1.723L5.633 10.5H3.462c-1.57 0-2.346-1.909-1.22-3.004L9.503.429zm1.047 1.074L3.286 8.571A.25.25 0 003.462 9H6.75a.75.75 0 01.694 1.034l-1.713 4.188 6.982-6.793A.25.25 0 0012.538 7H9.25a.75.75 0 01-.683-1.06l2.008-4.418.003-.006a.036.036 0 00-.004-.009l-.006-.006-.008-.001c-.003 0-.006.002-.009.004z"/></svg>

<svg xmlns="http://www.w3.org/2000/svg" width="16" height="16" viewBox="0 0 16 16">
  <defs/>
  <path d="M9.504,0.43 C10.027,-0.077 10.836,-0.141 11.432,0.278 C12.028,0.696 12.241,1.48 11.941,2.143 L10.415,5.5 L12.538,5.5 C14.108,5.5 14.884,7.409 13.758,8.504 L6.418,15.646 C6.185,15.873 5.872,16 5.547,16 L5.245,16 C4.829,16 4.439,15.793 4.207,15.447 C3.975,15.101 3.93,14.662 4.088,14.277 L5.633,10.5 L3.462,10.5 C1.892,10.5 1.116,8.591 2.242,7.496 L9.503,0.429 Z M10.551,1.504 L3.286,8.571 C3.213,8.642 3.191,8.751 3.229,8.845 C3.268,8.939 3.36,9.001 3.462,9 L6.75,9 C7,9 7.233,9.125 7.373,9.332 C7.512,9.54 7.539,9.803 7.444,10.034 L5.731,14.222 L12.713,7.429 C12.786,7.358 12.808,7.25 12.77,7.156 C12.732,7.061 12.64,7 12.538,7 L9.25,7 C8.995,7 8.758,6.871 8.619,6.656 C8.481,6.442 8.462,6.172 8.567,5.94 L10.575,1.522 L10.578,1.516 C10.577,1.513 10.576,1.51 10.574,1.507 C10.572,1.505 10.57,1.503 10.568,1.501 L10.56,1.5 C10.557,1.5 10.554,1.502 10.551,1.504 Z"/>
</svg>
